!!!COM: Prokofiev, Sergey (Sergeyevich)
!!!OTL: String Quartet No. 1, op. 50
!!!OMV: II: Andante molto
!!!example: 571
!!!work: Pro-24
**kern	**dynam	**kern	**dynam	**kern	**dynam	**kern	**dynam
*part4	*part4	*part3	*part3	*part2	*part2	*part1	*part1
*staff4	*	*staff3	*	*staff2	*	*staff1	*
*I"Violoncello	*	*I"Viola	*	*I"Violin II	*	*I"Violin I	*
*I'Vc.	*	*I'Vla.	*	*I'Vln. II	*	*I'Vln. I	*
*clefF4	*	*clefC3	*	*clefG2	*	*clefG2	*
*k[b-]	*	*k[b-]	*	*k[b-]	*	*k[b-]	*
*F:	*	*F:	*	*F:	*	*F:	*
*M6/8	*	*M6/8	*	*M6/8	*	*M6/8	*
*MM121	*	*MM121	*	*MM121	*	*MM121	*
=305	=305	=305	=305	=305	=305	=305	=305
(16%3DL	.	2.Bn	.	(8dL	.	(8BnL	.
.	.	.	.	8Bn)	.	8d)	.
16%3EJ	.	.	.	.	.	.	.
.	.	.	.	8d~J	.	8f~J	.
[4.G	.	.	.	8f~L	.	8bn~L	.
.	.	.	.	(8A	.	(8d	.
.	.	.	.	8dJ)	.	8fJ)	.
=306	=306	=306	=306	=306	=306	=306	=306
4.G])	.	16%3c	.	(8cL	.	(8cL	.
.	.	.	.	8d	.	8f	.
.	.	16%3r	.	.	.	.	.
.	.	.	.	[8ccJ	.	[8ccJ	.
4.C	.	4.r	.	8ccL])	.	8ccL])	.
.	.	.	.	8e~	.	8g~	.
.	.	.	.	8cJ	p	[8cJ	.
=307	=307	=307	=307	=307	=307	=307	=307
2.F	.	2.r	.	2.r	.	8cL]	.
.	.	.	.	.	.	(8Bn	.
.	.	.	.	.	.	8cJ	.
.	.	.	.	.	.	8dL)	.
.	.	.	.	.	.	(8d	.
.	.	.	.	.	.	8eJ	.
=308	=308	=308	=308	=308	=308	=308	=308
8r	.	8r	.	([8%3f	mf	8f)	p
(8GGL	p	(8BnL	p	.	.	8r	.
8AAJ	.	8cJ	.	.	.	8r	.
8BBnL)	.	8dL)	.	16%3fL]	.	4.r	.
(8BB	.	(8d	.	.	.	.	.
.	.	.	.	16%3ddJ)	.	.	.
8CJ	.	8eJ	.	.	.	.	.
=309	=309	=309	=309	=309	=309	=309	=309
8DL)	.	8fL)	.	(8%3cc	.	8r	.
(8D#X	.	(8f#X	.	.	.	(8eeeL	pp
8F#XJ	.	8aJ	.	.	.	8dddJ	.
8EL	.	8gL	.	16%3aL	.	8cccL	.
8Dn	.	8fn	.	.	.	8bb-X	.
.	.	.	.	16%3eJ)	.	.	.
8CJ)	.	8eJ)	.	.	.	8aanJ)	.
=310	=310	=310	=310	=310	=310	=310	=310
(8BB-L	.	(8dL	.	16%3f~L	.	(8bb-XL	.
8C)	.	8e)	.	.	.	8gg)	.
.	.	.	.	16%3g~J	.	.	.
8AA~J	.	8c~J	.	.	.	8ccc~J	.
(8GGL	.	(8B-L	.	[16%3aL	.	(8ffL	.
8AA	.	8c	.	.	.	8ee	.
.	.	.	.	16%3aJ_	.	.	.
8FFJ	.	8AJ	.	.	.	8ffJ	.
=311	=311	=311	=311	=311	=311	=311	=311
8EEL)	.	8GL)	.	16%3a]	.	8ggL)	.
(8FF	.	(8A	.	.	.	(8ff	.
.	.	.	.	16%3r	.	.	.
8CCJ	.	8EJ	.	.	.	8ggJ	.
8DDL	.	8FL	.	4.f~	.	8aaL	.
8EE	.	8G	.	.	.	8gg	.
8FFJ)	.	8AJ)	.	.	.	8ffJ)	.
=312	=312	=312	=312	=312	=312	=312	=312
(8GGL	.	(8B-L	.	(4.dd	.	(8eeL	.
8AA	.	8c	.	.	.	8ff	.
8BB-J	.	8dJ	.	.	.	8ggJ	.
8BBnL)	.	8d#XL)	.	4.cc)	.	8ccc)	.
(8C	.	(8e	.	.	.	8r	.
8E-XJ	.	8g-XJ	.	.	.	(8ff#X	.
=313	=313	=313	=313	=313	=313	=313	=313
8DL	.	8fL	.	(4.g	.	8bbnL	.
8En)	.	8gn)	.	.	.	8ccc)	.
(8CJ	.	(8eJ	.	.	.	(8ggJ	.
8BBnL	.	8d#XL	.	16%3aL	.	8dddL	.
8C	.	8e	.	.	.	8ccc	.
.	.	.	.	16%3eJ)	.	.	.
8BB-XJ)	.	8dnJ)	.	.	.	8ggJ)	.
=314	=314	=314	=314	=314	=314	=314	=314
(8AAL	.	(8c#XL	.	16%3f~L	.	(8ffL	.
8BB-	.	8d	.	.	.	8dd	.
.	.	.	.	16%3g~J	.	.	.
8GGJ	.	8B-J	.	.	.	8eeJ	.
8FFL)	.	8AL)	.	([16%3aL	.	8ccL)	.
(8GG	.	(8B-	.	.	.	(8bn	.
.	.	.	.	16%3aJ_	.	.	.
8EEJ	.	8GJ	.	.	.	8ccJ	.
=315	=315	=315	=315	=315	=315	=315	=315
8DDL)	.	8FL)	.	16%3aL]	.	8f)	.
(8FF	.	(8A	.	.	.	8r	.
.	.	.	.	16%3b-J)	.	.	.
8GGJ	.	8B-J	.	.	.	8r	.
8AAL	.	8cnL	.	[16%3ccL	.	8r	.
8C	.	8e	.	.	.	(8aL	.
.	.	.	.	16%3ccJ_	.	.	.
8DJ	.	8fJ	.	.	.	8b-XJ	.
=316	=316	=316	=316	=316	=316	=316	=316
8EL)	.	8gL)	.	16%3ccL]	.	8ccL)	.
(8E	.	(8g	.	.	.	(8gg	.
.	.	.	.	16%3dd-X~J	.	.	.
8FJ	.	8a-XJ	.	.	.	8ffJ	.
8GL	.	8b-L	.	(16%3.ee-XL	.	8ee-XL)	.
8F#X	.	8an	.	.	.	(8ee-	.
8GJ)	.	8b-J)	.	.	.	8ddJ)	.
.	.	.	.	32%3ffJk)	.	.	.
=317	=317	=317	=317	=317	=317	=317	=317
(8A-XL	mp	(8ccL	mp	4.ee-X	.	8cc	.
8B-)	.	8dd-X)	.	.	.	8r	.
8G~J	.	8b-~J	.	.	.	(8gg	mp
(8FL	.	(8a-XL	.	4.ee-~	.	8aa-XL	.
8G	.	8b-	.	.	.	8gg)	.
8E-XJ)	.	8gJ)	.	.	.	(8bb-XJ	.
=318	=318	=318	=318	=318	=318	=318	=318
(8D-XL	.	(8fL	.	(4.aa-X	f	8cccL	.
8E-X)	.	8g)	.	.	.	8bb-X	.
8C~J	.	8e-X~J	.	.	.	8ddd-XJ)	.
(8BB-L	<	(8G-XL	<	4.ccc)	<	(8eee-XL	<
8C	.	8e-	.	.	.	8ddd-)	.
8AA-XJ)	.	8cJ)	.	.	.	8fff~J	.
=319	=319	=319	=319	=319	=319	=319	=319
(8GGL	.	(8B-L	.	4.gg~	.	(8gggL	.
8AA-X)	.	8c)	.	.	.	8eee-X	.
8FF~J	.	8A-X~J	.	.	.	8fffJ)	.
8EE-X~L	.	8Gn~L	.	(16%3aa-XL	.	(8gggL	.
8FF-X~	.	8A-~	.	.	.	8aaa-X)	.
.	.	.	.	16%3bb-J)	[	.	.
8DD-X~J	[[	8F~J	[[	.	.	8bbb-X~J	[[
=320	=320	=320	=320	=320	=320	=320	=320
8DDn^L	f	8F#X^L	f	4.bbn	ff	8bbbn^L	f
8GG#X~	.	8Bn~	.	.	.	8fff#X~	.
8BBn~J	.	8d~J	.	.	.	8ddd~J	.
8D^^	.	8f#X^^	.	[4.bn	.	8bbn'	.
8r	.	8r	.	.	.	8r	.
(8D	.	(8d	.	.	.	8r	.
=321	=321	=321	=321	=321	=321	=321	=321
8D#XL)	.	8f#XL)	.	16%3b]	.	2.r	.
8Bn~	.	8bn~	.	.	.	.	.
.	.	.	.	16%3r	.	.	.
(8E#XJ	.	(8e#XJ	.	.	.	.	.
8G#XL)	.	8g#XL)	.	4.cc#X	f	.	.
8c#X~	.	8cc#X~	.	.	.	.	.
(8F#XJ	>	(8f#XJ	>	.	.	.	.
=322	=322	=322	=322	=322	=322	=322	=322
8AL)	.	8aL)	.	(16%3ddL	.	2.r	.
8c#X~J	.	8cc#X~J	.	.	.	.	.
.	.	.	.	16%3eeJ	.	.	.
8r	.	8r	.	.	.	.	.
8Bn~L	.	8bn~L	.	[4.cc#X	.	.	.
8G~	.	8g~	.	.	.	.	.
8E~J	.	8e~J	.	.	.	.	.
=323	=323	=323	=323	=323	=323	=323	=323
8BB-X~L	.	8B-X~L	.	16%3cc#L])	.	8r	.
8GG~	.	8G~	.	.	.	(8gL	p
.	.	.	.	(16%3ddJ	.	.	.
8EE~J	.	8E~J	.	.	.	8fJ	.
8CC~	]	8C~	]	16%3ggL	.	8eL	.
8r	.	8r	.	.	.	8d	.
.	.	.	.	16%3eeJ)	.	.	.
8r	.	8r	.	.	.	8cJ)	.
=324	=324	=324	=324	=324	=324	=324	=324
8Bn~L	p	8d~L	p	8ff~L	p	8dd~L	.
(8G	.	(8e	.	(8cccn	.	(8cc	.
8BJ)	.	8dJ)	.	8ffJ)	.	8ddJ)	.
(8B-X~L	.	(8d-X~L	.	(8gg~L	.	(8ee~L	.
8G-X	.	8dn	.	8ccc	.	8cc	.
8B-J)	.	8d-XJ)	.	8ggJ)	.	8eeJ)	.
=325	=325	=325	=325	=325	=325	=325	=325
4.A	.	8c~L	.	4.aa~	.	8ff~L	.
.	.	8F~	.	.	.	8cc~	.
.	.	8C~J	.	.	.	8a~J	.
4.r	.	8F~	.	4.r	.	8f~	.
.	.	8r	.	.	.	4r	.
.	.	8r	.	.	.	.	.
=	=	=	=	=	=	=	=
*-	*-	*-	*-	*-	*-	*-	*-
!!!system-decoration: [(s1,s2,s3,s4)]
!!!CDT: 1891/04/23-1953/03/05
!!!CBL: Sontsovka, Ukraine
!!!CDL: Moscow, Russia
!!!CNT: Russian
!!!AGN: Instrumental; Chamber
!!!MCN:
!!!MDT: 1931/04/25
!!!MGN: Brosa Quartet
!!!MLC: Washington, D.C., United States of America
!!!MPD: 1931
!!!MPN:
!!!ODT: 1930
!!!PDT: 1931
!!!excerpt-start-measure: 305
!!!excerpt-end-measure: 325
!!!excerpt-start-time: 5:33
!!!excerpt-end-time: 5:53
!!!EEV: 2020/01/27
!!!ONB: Converted from MusicXML on 2020/01/27
